assets/offering/vattenlacka2.svg

<svg width="48" height="47" viewBox="0 0 48 47" fill="none" xmlns="http://www.w3.org/2000/svg">
<mask id="mask0" mask-type="alpha" maskUnits="userSpaceOnUse" x="0" y="0" width="49" height="47">
<path fill-rule="evenodd" clip-rule="evenodd" d="M0.00012207 0.232422H48V46.7952H0.00012207V0.232422Z" fill="white"/>
</mask>
<g mask="url(#mask0)">
<path fill-rule="evenodd" clip-rule="evenodd" d="M48.0001 23.5139C48.0001 36.3721 37.2551 46.7954 24.0001 46.7954C10.7451 46.7954 0.00012207 36.3721 0.00012207 23.5139C0.00012207 10.6557 10.7451 0.232422 24.0001 0.232422C37.2551 0.232422 48.0001 10.6557 48.0001 23.5139Z" fill="#FF8A80"/>
</g>
<mask id="mask1" mask-type="alpha" maskUnits="userSpaceOnUse" x="0" y="0" width="48" height="47">
<path fill-rule="evenodd" clip-rule="evenodd" d="M0 46.7954H48V0.232422H0V46.7954Z" fill="white"/>
</mask>
<g mask="url(#mask1)">
<path fill-rule="evenodd" clip-rule="evenodd" d="M20.067 35.2621H21.067V30.9502H20.067V35.2621Z" fill="white"/>
<path fill-rule="evenodd" clip-rule="evenodd" d="M35.2863 23.9758C34.5673 25.4232 33.9633 26.788 33.9633 27.5476C33.9643 28.2557 34.5583 28.832 35.2893 28.832C36.0193 28.832 36.6143 28.2557 36.6143 27.5476C36.6143 26.8123 36.0643 25.5551 35.2863 23.9758ZM35.2893 29.8021C34.0083 29.8021 32.9643 28.7913 32.9633 27.5477C32.9633 26.5233 33.6233 25.0372 34.8413 22.6518L35.2933 21.7681L35.7383 22.6547C36.8713 24.9082 37.6143 26.4661 37.6143 27.5477C37.6143 28.7903 36.5713 29.8021 35.2893 29.8021Z" fill="white"/>
<path fill-rule="evenodd" clip-rule="evenodd" d="M35.2667 13.4358C33.8877 13.4358 32.7667 14.5242 32.7667 15.8609C32.7667 17.1977 33.8877 18.2861 35.2667 18.2861C36.6457 18.2861 37.7667 17.1977 37.7667 15.8609C37.7667 14.5242 36.6457 13.4358 35.2667 13.4358ZM35.2667 19.2563C33.3367 19.2563 31.7667 17.7333 31.7667 15.861C31.7667 13.9888 33.3367 12.4658 35.2667 12.4658C37.1967 12.4658 38.7667 13.9888 38.7667 15.861C38.7667 17.7333 37.1967 19.2563 35.2667 19.2563Z" fill="white"/>
<path fill-rule="evenodd" clip-rule="evenodd" d="M20.5665 36.502C15.4205 36.502 11.2335 32.4404 11.2335 27.4484V12.7355H18.2335V27.4484C18.2335 28.6969 19.2805 29.7116 20.5665 29.7116C21.8535 29.7116 22.9005 28.6969 22.9005 27.4484V17.8002C22.9005 14.859 25.3675 12.4658 28.3985 12.4658H35.2665V13.4359H28.3985C25.9185 13.4359 23.9005 15.3935 23.9005 17.8002V27.4484C23.9005 29.2314 22.4045 30.6816 20.5665 30.6816C18.7285 30.6816 17.2335 29.2314 17.2335 27.4484V13.7056H12.2335V27.4484C12.2335 31.9059 15.9715 35.532 20.5665 35.532C25.1625 35.532 28.9005 31.9059 28.9005 27.4484V18.2862H35.2665V19.2563H29.9005V27.4484C29.9005 32.4404 25.7125 36.502 20.5665 36.502Z" fill="white"/>
</g>
</svg>

<svg width="48" height="47" viewBox="0 0 48 47" fill="none" xmlns="http://www.w3.org/2000/svg"><mask id="a" maskUnits="userSpaceOnUse" x="0" y="0" width="49" height="47"><path fill-rule="evenodd" clip-rule="evenodd" d="M0 .232h48v46.563H0V.232z" fill="#fff"/></mask><g mask="url(#a)"><path fill-rule="evenodd" clip-rule="evenodd" d="M48 23.514c0 12.858-10.745 23.281-24 23.281S0 36.372 0 23.514C0 10.656 10.745.232 24 .232s24 10.424 24 23.282z" fill="#FF8A80"/></g><mask id="b" maskUnits="userSpaceOnUse" x="0" y="0" width="48" height="47"><path fill-rule="evenodd" clip-rule="evenodd" d="M0 46.795h48V.232H0v46.563z" fill="#fff"/></mask><g mask="url(#b)" fill-rule="evenodd" clip-rule="evenodd" fill="#fff"><path d="M20.067 35.262h1V30.95h-1v4.312zM35.286 23.976c-.719 1.447-1.323 2.812-1.323 3.572.001.708.595 1.284 1.326 1.284.73 0 1.325-.576 1.325-1.284 0-.736-.55-1.993-1.328-3.572zm.003 5.826c-1.28 0-2.325-1.01-2.326-2.254 0-1.025.66-2.51 1.878-4.896l.452-.884.445.887c1.133 2.253 1.876 3.811 1.876 4.893 0 1.242-1.043 2.254-2.325 2.254zM35.267 13.436c-1.38 0-2.5 1.088-2.5 2.425 0 1.337 1.12 2.425 2.5 2.425 1.379 0 2.5-1.088 2.5-2.425 0-1.337-1.121-2.425-2.5-2.425zm0 5.82c-1.93 0-3.5-1.523-3.5-3.395s1.57-3.395 3.5-3.395 3.5 1.523 3.5 3.395-1.57 3.395-3.5 3.395z"/><path d="M20.567 36.502c-5.146 0-9.334-4.062-9.334-9.054V12.735h7v14.713c0 1.249 1.047 2.264 2.334 2.264 1.287 0 2.334-1.015 2.334-2.264V17.8c0-2.941 2.466-5.334 5.497-5.334h6.869v.97h-6.869c-2.48 0-4.497 1.957-4.497 4.364v9.648c0 1.783-1.497 3.234-3.334 3.234-1.838 0-3.334-1.45-3.334-3.234V13.706h-5v13.742c0 4.458 3.739 8.084 8.334 8.084 4.596 0 8.334-3.626 8.334-8.084v-9.162h6.366v.97H29.9v8.192c0 4.992-4.188 9.054-9.333 9.054z"/></g></svg>
